X:3
T: The Green Mountain
R: reel
M: 4/4
L: 1/8
K: Dmaj
uA | "D"vAu(F~F2) vAu(FEF)|D(F~F2) v(ABd)(e|"G"f~f3) v(efd)B|"A"ABdu(f efdB)|
"D"A(F~F2) A(FEF)|D(F~F2) (ABd)(e|"G"f~f3) v(efd)B|"A"Au(FEF) "D"vD3 :|
ue|"D"v(f2af) u(bfaf)|d(efd) ve2(de|"G"f~f3) v(efd)B|"A"ABdu(f efdB)|
"D"v(f2af) u(bfaf)|d(efd) ve2(de|"G"f~f3) v(efd)B|"A"Au(FEF) "D"vD3 :|



